X: 1
T: Bonaparte Crossing the Rhine
%C: R-130 [RJ collection]
O: 1837
S: Sheet music published 1837 by Geo Willig, Philadelphia, as "Caledonian March"
N: Attributed to "A Professor" by Geo Willig
M: C
L: 1/8
Z:
R: march
K: D
FG |\
"D"A>BAF A2de | f>efa d2dc | "G"B>cdB "D"AFED | "A"E2EF E2FG |
y3 |\
"D"A>BAF A2de | f>efa d2dc | "G"B>cdB "D"AF"A"EF | "D"D2D>E D2 |]
de |\
"D"f>efg a3A | "G"B>ABc "D"d3A | "G"B>cdB "D"AFDF | "A"E2E>F E2FG |
y3 |\
"D"A>BAF A2de | f>efa d2dc | "G"B>cdB "D"AF"A"EF | "D"D2D>E D2 |]
